Infinity-Icons/Infinity-Light-Icons/preferences/22/preferences-devices-scanner.svg

<?xml version="1.0" encoding="UTF-8" standalone="no"?>
<svg
   height="22"
   width="22"
   version="1.1"
   id="svg325"
   sodipodi:docname="preferences-devices-scanner.svg"
   inkscape:version="1.2.1 (9c6d41e410, 2022-07-14)"
   xmlns:inkscape="http://www.inkscape.org/namespaces/inkscape"
   xmlns:sodipodi="http://sodipodi.sourceforge.net/DTD/sodipodi-0.dtd"
   xmlns:xlink="http://www.w3.org/1999/xlink"
   xmlns="http://www.w3.org/2000/svg"
   xmlns:svg="http://www.w3.org/2000/svg">
  <defs
     id="defs329">
    <linearGradient
       inkscape:collect="always"
       xlink:href="#linearGradient929"
       id="linearGradient931"
       x1="-20.000109"
       y1="19.99992"
       x2="-2.0008564"
       y2="2.001688"
       gradientUnits="userSpaceOnUse"
       gradientTransform="translate(4.8306909e-4,-8.0372424e-4)" />
    <linearGradient
       inkscape:collect="always"
       id="linearGradient929">
      <stop
         style="stop-color:#4d6f89;stop-opacity:1;"
         offset="0"
         id="stop925" />
      <stop
         style="stop-color:#364e60;stop-opacity:0.94117647;"
         offset="1"
         id="stop927" />
    </linearGradient>
    <linearGradient
       id="d-3"
       gradientTransform="matrix(0.37499785,0,0,0.37499998,-142.21407,-182.42439)"
       gradientUnits="userSpaceOnUse"
       x1="432.57199"
       x2="432.57199"
       y1="531.79797"
       y2="507.798">
      <stop
         offset="0"
         stop-color="#c6cdd1"
         id="stop17-6" />
      <stop
         offset="1"
         stop-color="#e0e5e7"
         id="stop19-7" />
    </linearGradient>
    <linearGradient
       id="e-5"
       gradientTransform="matrix(0.388892,0,0,0.71428751,-147.8888,-358.71251)"
       gradientUnits="userSpaceOnUse"
       x1="426.57101"
       x2="426.57101"
       xlink:href="#b-3"
       y1="514.79797"
       y2="511.298" />
    <linearGradient
       id="b-3">
      <stop
         offset="0"
         stop-color="#18222a"
         id="stop7" />
      <stop
         offset="1"
         stop-color="#566069"
         id="stop9" />
    </linearGradient>
    <linearGradient
       id="g-6"
       gradientTransform="matrix(0.38888818,0,0,0.28571508,-147.88855,-135.51404)"
       gradientUnits="userSpaceOnUse"
       x1="426.57101"
       x2="426.57101"
       xlink:href="#b-3"
       y1="533.79797"
       y2="539.04797" />
    <linearGradient
       id="c-6">
      <stop
         offset="0"
         stop-color="#2f3943"
         id="stop12" />
      <stop
         offset="1"
         stop-color="#4d5662"
         id="stop14" />
    </linearGradient>
    <linearGradient
       id="a-7">
      <stop
         offset="0"
         id="stop2" />
      <stop
         offset="1"
         stop-opacity="0"
         id="stop4" />
    </linearGradient>
    <linearGradient
       id="f-5"
       gradientTransform="matrix(0.25000003,0,0,0.38888897,-128.0071,-207.47673)"
       gradientUnits="userSpaceOnUse"
       x1="403.23801"
       x2="403.23801"
       y1="519.79797"
       y2="507.798">
      <stop
         offset="0"
         stop-color="#eef1f2"
         id="stop23" />
      <stop
         offset="1"
         stop-color="#f9fafb"
         id="stop25" />
    </linearGradient>
    <linearGradient
       id="h-3"
       gradientTransform="matrix(0.26785556,0,0,0.16666668,-135.303,-88.96604)"
       gradientUnits="userSpaceOnUse"
       x1="396.12701"
       x2="421.01599"
       y1="539.79797"
       y2="539.79797">
      <stop
         offset="0"
         stop-color="#e74c3c"
         id="stop29" />
      <stop
         offset=".25"
         stop-color="#f39c1f"
         id="stop31" />
      <stop
         offset=".5"
         stop-color="#11d116"
         id="stop33" />
      <stop
         offset=".75"
         stop-color="#3498db"
         id="stop35" />
      <stop
         offset="1"
         stop-color="#9b59b6"
         id="stop37" />
    </linearGradient>
    <linearGradient
       id="a-5"
       gradientUnits="userSpaceOnUse"
       x1="3"
       x2="3"
       xlink:href="#i"
       y1="21"
       y2="1" />
    <linearGradient
       id="linearGradient1374">
      <stop
         offset="0"
         stop-color="#c6cdd1"
         id="stop283-6" />
      <stop
         offset="1"
         stop-color="#e0e5e7"
         id="stop285-2" />
    </linearGradient>
    <linearGradient
       id="b-9"
       gradientUnits="userSpaceOnUse"
       x1="19"
       x2="3"
       xlink:href="#i"
       y1="21"
       y2="21" />
    <linearGradient
       id="c-1"
       gradientTransform="matrix(0.75,0,0,1,2.75,-1)"
       gradientUnits="userSpaceOnUse"
       x1="3"
       x2="3"
       y1="21"
       y2="19">
      <stop
         offset="0"
         stop-color="#2f3943"
         id="stop265-2" />
      <stop
         offset="1"
         stop-color="#4d5662"
         id="stop267-7" />
    </linearGradient>
    <linearGradient
       id="d-0"
       gradientUnits="userSpaceOnUse"
       x1="11"
       x2="11"
       xlink:href="#i"
       y1="4"
       y2="17" />
    <linearGradient
       id="e-9"
       gradientTransform="matrix(0.625,0,0,0.71429,137.214,166.657)"
       gradientUnits="userSpaceOnUse"
       x1="5"
       x2="5"
       y1="5"
       y2="16">
      <stop
         offset="0"
         stop-color="#2e5d89"
         id="stop271-3" />
      <stop
         offset="1"
         stop-color="#1b92f4"
         id="stop273-6" />
    </linearGradient>
    <linearGradient
       id="f-0"
       gradientTransform="matrix(0.375,0,0,0.66667,-142.2142,357.868)"
       gradientUnits="userSpaceOnUse"
       x1="418.17099"
       x2="418.17099"
       xlink:href="#h"
       y1="-521.79797"
       y2="-518.79797" />
    <linearGradient
       id="linearGradient1387">
      <stop
         offset="0"
         stop-color="#84cbfe"
         id="stop278-6" />
      <stop
         offset="1"
         stop-color="#84cbfe"
         stop-opacity="0"
         id="stop280-2" />
    </linearGradient>
    <linearGradient
       id="g-61"
       gradientTransform="matrix(0.375,0,0,-0.66667,-142.2142,-338.868)"
       gradientUnits="userSpaceOnUse"
       x1="418.17099"
       x2="418.17099"
       xlink:href="#h"
       y1="-521.79797"
       y2="-518.79797" />
    <linearGradient
       id="linearGradient1392"
       gradientTransform="matrix(-6.639062e-4,-0.33908148,0.33113178,-6.4834867e-4,-171.74144,124.51715)"
       gradientUnits="userSpaceOnUse"
       x1="390.57101"
       x2="413.62451"
       y1="507.67401"
       y2="531.28375">
      <stop
         offset="0"
         id="stop288-8" />
      <stop
         offset="1"
         stop-opacity="0"
         id="stop290-7" />
    </linearGradient>
    <linearGradient
       id="a-2"
       gradientUnits="userSpaceOnUse"
       x1="3"
       x2="3"
       xlink:href="#linearGradient1374"
       y1="21"
       y2="1" />
    <linearGradient
       id="b-1"
       gradientUnits="userSpaceOnUse"
       x1="19"
       x2="3"
       xlink:href="#linearGradient1374"
       y1="21"
       y2="21" />
    <linearGradient
       id="c-9"
       gradientTransform="matrix(0.75,0,0,1,2.75,-1)"
       gradientUnits="userSpaceOnUse"
       x1="3"
       x2="3"
       y1="21"
       y2="19">
      <stop
         offset="0"
         stop-color="#2f3943"
         id="stop265-4" />
      <stop
         offset="1"
         stop-color="#4d5662"
         id="stop267-78" />
    </linearGradient>
    <linearGradient
       id="d-4"
       gradientUnits="userSpaceOnUse"
       x1="11"
       x2="11"
       xlink:href="#linearGradient1374"
       y1="4"
       y2="17" />
    <linearGradient
       id="e-50"
       gradientTransform="matrix(0.625,0,0,0.71429,137.214,166.657)"
       gradientUnits="userSpaceOnUse"
       x1="5"
       x2="5"
       y1="5"
       y2="16">
      <stop
         offset="0"
         stop-color="#2e5d89"
         id="stop271-36" />
      <stop
         offset="1"
         stop-color="#1b92f4"
         id="stop273-1" />
    </linearGradient>
    <linearGradient
       id="f-06"
       gradientTransform="matrix(0.375,0,0,0.66667,-142.2142,357.868)"
       gradientUnits="userSpaceOnUse"
       x1="418.17099"
       x2="418.17099"
       xlink:href="#linearGradient1387"
       y1="-521.79797"
       y2="-518.79797" />
    <linearGradient
       id="g-615"
       gradientTransform="matrix(0.375,0,0,-0.66667,-142.2142,-338.868)"
       gradientUnits="userSpaceOnUse"
       x1="418.17099"
       x2="418.17099"
       xlink:href="#linearGradient1387"
       y1="-521.79797"
       y2="-518.79797" />
    <linearGradient
       inkscape:collect="always"
       xlink:href="#j"
       id="linearGradient1722"
       gradientUnits="userSpaceOnUse"
       gradientTransform="matrix(0.36680291,-5.3803126e-4,5.2542546e-4,0.35820328,-136.84169,-174.78377)"
       x1="390.57101"
       y1="507.67401"
       x2="413.62451"
       y2="531.28375" />
  </defs>
  <sodipodi:namedview
     id="namedview327"
     pagecolor="#ffffff"
     bordercolor="#666666"
     borderopacity="1.0"
     inkscape:showpageshadow="2"
     inkscape:pageopacity="0.0"
     inkscape:pagecheckerboard="0"
     inkscape:deskcolor="#d1d1d1"
     showgrid="false"
     inkscape:zoom="10.727273"
     inkscape:cx="11"
     inkscape:cy="11.04661"
     inkscape:window-width="1920"
     inkscape:window-height="1000"
     inkscape:window-x="0"
     inkscape:window-y="0"
     inkscape:window-maximized="1"
     inkscape:current-layer="svg325" />
  <linearGradient
     id="a"
     gradientUnits="userSpaceOnUse"
     x1="3"
     x2="3"
     xlink:href="#i"
     y1="21"
     y2="1" />
  <linearGradient
     id="b"
     gradientUnits="userSpaceOnUse"
     x1="19"
     x2="3"
     xlink:href="#i"
     y1="21"
     y2="21" />
  <linearGradient
     id="c"
     gradientTransform="matrix(0.75,0,0,1,2.75,-1)"
     gradientUnits="userSpaceOnUse"
     x1="3"
     x2="3"
     y1="21"
     y2="19">
    <stop
       offset="0"
       stop-color="#2f3943"
       id="stop265" />
    <stop
       offset="1"
       stop-color="#4d5662"
       id="stop267" />
  </linearGradient>
  <linearGradient
     id="d"
     gradientUnits="userSpaceOnUse"
     x1="11"
     x2="11"
     xlink:href="#i"
     y1="4"
     y2="17" />
  <linearGradient
     id="e"
     gradientTransform="matrix(0.625,0,0,0.71429,137.214,166.657)"
     gradientUnits="userSpaceOnUse"
     x1="5"
     x2="5"
     y1="5"
     y2="16">
    <stop
       offset="0"
       stop-color="#2e5d89"
       id="stop271" />
    <stop
       offset="1"
       stop-color="#1b92f4"
       id="stop273" />
  </linearGradient>
  <linearGradient
     id="f"
     gradientTransform="matrix(0.375,0,0,0.66667,-142.2142,357.868)"
     gradientUnits="userSpaceOnUse"
     x1="418.17099"
     x2="418.17099"
     xlink:href="#h"
     y1="-521.79797"
     y2="-518.79797" />
  <linearGradient
     id="g"
     gradientTransform="matrix(0.375,0,0,-0.66667,-142.2142,-338.868)"
     gradientUnits="userSpaceOnUse"
     x1="418.17099"
     x2="418.17099"
     xlink:href="#h"
     y1="-521.79797"
     y2="-518.79797" />
  <linearGradient
     id="h">
    <stop
       offset="0"
       stop-color="#84cbfe"
       id="stop278" />
    <stop
       offset="1"
       stop-color="#84cbfe"
       stop-opacity="0"
       id="stop280" />
  </linearGradient>
  <linearGradient
     id="i">
    <stop
       offset="0"
       stop-color="#c6cdd1"
       id="stop283" />
    <stop
       offset="1"
       stop-color="#e0e5e7"
       id="stop285" />
  </linearGradient>
  <linearGradient
     id="j"
     gradientTransform="matrix(-6.639062e-4,-0.33908148,0.33113178,-6.4834867e-4,-171.74144,124.51715)"
     gradientUnits="userSpaceOnUse"
     x1="390.57101"
     x2="413.62451"
     y1="507.67401"
     y2="531.28375">
    <stop
       offset="0"
       id="stop288" />
    <stop
       offset="1"
       stop-opacity="0"
       id="stop290" />
  </linearGradient>
  <rect
     width="17.999252"
     x="-19.999626"
     y="2.0008841"
     rx="8.9996262"
     height="17.998232"
     transform="scale(-1,1)"
     id="rect223"
     ry="8.9991159"
     style="fill:url(#linearGradient931);fill-opacity:1" />
  <path
     style="display:inline;overflow:visible;opacity:0.3;fill:#000000;fill-opacity:1;stroke-width:1.25991;stroke-opacity:0.55"
     d="m 2.0052859,10.775041 c -0.0017,0.07501 -0.0054,0.149594 -0.0054,0.225034 0,4.985548 4.013844,8.999121 8.9996001,8.999121 4.985759,0 8.999662,-4.013573 8.999662,-8.999121 0,-0.07544 -0.0034,-0.149594 -0.0054,-0.225034 -0.118842,4.880661 -4.085868,8.77413 -8.994257,8.77413 -4.9101921,0 -8.8754191,-3.893469 -8.9942011,-8.77413"
     id="path225" />
  <path
     d="m 2.0052859,11.223351 c -0.0017,-0.07501 -0.0054,-0.149165 -0.0054,-0.225034 0,-4.9855047 4.013844,-8.9991207 8.9996001,-8.9991207 4.985759,0 8.999662,4.013616 8.999662,8.9991207 0,0.07544 -0.0034,0.150023 -0.0054,0.225034 -0.118842,-4.8806597 -4.085868,-8.7741297 -8.994257,-8.7741297 -4.9101921,0 -8.8754191,3.89347 -8.9942011,8.7741297"
     style="display:inline;overflow:visible;opacity:0.3;fill:#ffffff;fill-opacity:1;stroke-width:1.25991;stroke-opacity:0.55"
     id="path229" />
  <g
     stroke-linejoin="round"
     id="g311-7"
     transform="matrix(0.52855723,-7.7529453e-4,7.7529452e-4,0.52855724,5.0987783,5.2733986)">
    <rect
       fill="url(#a)"
       height="20"
       rx="1"
       stroke-width="2.06559"
       width="16"
       x="3"
       y="1"
       id="rect293-6"
       style="fill:url(#a-2)" />
    <path
       d="m 3,18 v 2 c 0,0.554 0.446,1 1,1 h 14 c 0.554,0 1,-0.446 1,-1 v -2 z"
       fill="url(#b)"
       stroke-width="2"
       id="path295-5"
       style="fill:url(#b-1)" />
    <path
       d="m 3,19 v 1 c 0,0.554 0.446,1 1,1 h 14 c 0.554,0 1,-0.446 1,-1 v -1 c 0,0.554 -0.446,1 -1,1 H 4 C 3.446,20 3,19.554 3,19 Z"
       fill="#292c2f"
       opacity="0.2"
       stroke-width="2.06559"
       id="path297-6" />
    <path
       d="M 4,1 C 3.446,1 3,1.446 3,2 v 1 h 1 14 1 V 2 C 19,1.446 18.554,1 18,1 Z m 1,17 v 1 c 0,0.554 0.3345,1 0.75,1 h 10.5 C 16.6655,20 17,19.554 17,19 v -1 z"
       fill="url(#c)"
       stroke-width="1.73205"
       id="path299-9"
       style="fill:url(#c-9)" />
    <g
       stroke-width="2"
       id="g309-3">
      <path
         d="m 15,18 h 1 v 1 h -1 z"
         fill="#11d116"
         id="path301-7" />
      <path
         d="M 3,2 H 19 V 3 H 3 Z"
         opacity="0.2"
         id="path303-4" />
      <path
         d="M 4,4 H 18 V 17 H 4 Z"
         fill="url(#d)"
         id="path305-5"
         style="fill:url(#d-4)" />
      <path
         d="M 5,5 H 17 V 16 H 5 Z"
         fill="url(#e)"
         id="path307-25"
         style="fill:url(#e-50)" />
    </g>
  </g>
  <g
     stroke-width="0.774597"
     id="g319-4"
     transform="matrix(0.52855723,-7.7529453e-4,7.7529452e-4,0.52855724,5.0987783,5.2733986)">
    <path
       d="m 5,9 h 12 v 1 H 5 Z"
       fill="#84cbfe"
       id="path313-7" />
    <path
       d="m 5,10 h 12 v 2 H 5 Z"
       fill="url(#f)"
       opacity="0.2"
       id="path315-4"
       style="fill:url(#f-06)" />
    <path
       d="M 5,9 H 17 V 7 H 5 Z"
       fill="url(#g)"
       opacity="0.2"
       id="path317-4"
       style="fill:url(#g-615)" />
  </g>
  <path
     d="m 8.2755485,8.9686514 3.1713405,-0.00462 0.0065,4.2284546 -3.1713426,0.0043 z"
     fill="#eff0f1"
     stroke-linejoin="round"
     stroke-width="1.05711"
     id="path321-3" />
  <path
     d="M 6.6867762,6.8567474 15.156093,15.301253 15.143681,6.8443451 Z"
     fill="url(#j)"
     opacity="0.2"
     id="path323-0"
     style="fill:url(#linearGradient1722);stroke-width:0.528559" />
</svg>

<svg height="22" width="22" xmlns="http://www.w3.org/2000/svg" xmlns:xlink="http://www.w3.org/1999/xlink"><linearGradient id="a" gradientUnits="userSpaceOnUse" x1="3" x2="3" xlink:href="#i" y1="21" y2="1"/><linearGradient id="b" gradientUnits="userSpaceOnUse" x1="19" x2="3" xlink:href="#i" y1="21" y2="21"/><linearGradient id="c" gradientTransform="matrix(.75 0 0 1 2.75 -1)" gradientUnits="userSpaceOnUse" x1="3" x2="3" y1="21" y2="19"><stop offset="0" stop-color="#2f3943"/><stop offset="1" stop-color="#4d5662"/></linearGradient><linearGradient id="d" gradientUnits="userSpaceOnUse" x1="11" x2="11" xlink:href="#i" y1="4" y2="17"/><linearGradient id="e" gradientTransform="matrix(.625 0 0 .71429 137.214 166.657)" gradientUnits="userSpaceOnUse" x1="5" x2="5" y1="5" y2="16"><stop offset="0" stop-color="#2e5d89"/><stop offset="1" stop-color="#1b92f4"/></linearGradient><linearGradient id="f" gradientTransform="matrix(.375 0 0 .66667 -142.2142 357.868)" gradientUnits="userSpaceOnUse" x1="418.17099" x2="418.17099" xlink:href="#h" y1="-521.79797" y2="-518.79797"/><linearGradient id="g" gradientTransform="matrix(.375 0 0 -.66667 -142.2142 -338.868)" gradientUnits="userSpaceOnUse" x1="418.17099" x2="418.17099" xlink:href="#h" y1="-521.79797" y2="-518.79797"/><linearGradient id="h"><stop offset="0" stop-color="#84cbfe"/><stop offset="1" stop-color="#84cbfe" stop-opacity="0"/></linearGradient><linearGradient id="i"><stop offset="0" stop-color="#c6cdd1"/><stop offset="1" stop-color="#e0e5e7"/></linearGradient><linearGradient id="j" gradientTransform="matrix(.69397 0 0 .6777 -268.043 -341.051)" gradientUnits="userSpaceOnUse" x1="390.57101" x2="413.62451" y1="507.67401" y2="531.28375"><stop offset="0"/><stop offset="1" stop-opacity="0"/></linearGradient><g stroke-linejoin="round"><rect fill="url(#a)" height="20" rx="1" stroke-width="2.06559" width="16" x="3" y="1"/><path d="m3 18v2c0 .554.446 1 1 1h14c.554 0 1-.446 1-1v-2z" fill="url(#b)" stroke-width="2"/><path d="m3 19v1c0 .554.446 1 1 1h14c.554 0 1-.446 1-1v-1c0 .554-.446 1-1 1h-14c-.554 0-1-.446-1-1z" fill="#292c2f" opacity=".2" stroke-width="2.06559"/><path d="m4 1c-.554 0-1 .446-1 1v1h1 14 1v-1c0-.554-.446-1-1-1zm1 17v1c0 .554.3345 1 .75 1h10.5c.4155 0 .75-.446.75-1v-1z" fill="url(#c)" stroke-width="1.73205"/><g stroke-width="2"><path d="m15 18h1v1h-1z" fill="#11d116"/><path d="m3 2h16v1h-16z" opacity=".2"/><path d="m4 4h14v13h-14z" fill="url(#d)"/><path d="m5 5h12v11h-12z" fill="url(#e)"/></g></g><g stroke-width=".774597"><path d="m5 9h12v1h-12z" fill="#84cbfe"/><path d="m5 10h12v2h-12z" fill="url(#f)" opacity=".2"/><path d="m5 9h12v-2h-12z" fill="url(#g)" opacity=".2"/></g><path d="m6 7h6v8h-6z" fill="#eff0f1" stroke-linejoin="round" stroke-width="2"/><path d="m3 3 16 16v-16z" fill="url(#j)" opacity=".2"/></svg>
